X:1     %Music
T:The Bonny Black Hare
B: Purslow, F, (1972), The Constant Lovers, EDFS, London
S:Thomas Jones, Portsmouth, Hants. August 1907
Z:Gardiner Hp. 825.  
F:http://www.folkinfo.org/songs
M:3/4     %Meter
L:1/8     %
K:D
(DF) |A2 A2 (dc) |B2 A2 F3/2 E/ |E2 D2 D2 | D4
w:One_ morn-ing in_ Aut-umn by the dawn of the day
F3/2E/ |E2 (EF) (GA) |B2 A2 A2 |A2 A2 B2 |A4
w:With my gun in_ good_ or-der I straight took my way;
A2 |A2 F2 A2 |d4 e3/2 d/ |d2 A2 F2 | E4
w:To hunt for some game to the woods I did steer,
D2 |E3/2 E/ F2 G2 |(B2A2) F2 |E2 D2 D2 | D4 |]
w:sTo see if I could find_ my bon-ny black hare.